X: 1
T: Mable Kelly
B: A COLECTION of the most Celebrated Irish Tunes14a
M: 3/4
L: 1/8
K: Ddor
   dc |\
A2 A2 Ac | d2 de de | dc AG Ac | d2 de d2 |
cB AG ED | C2 CD C2 | AG ED EG | A2 Ac A2 |
c2 ce ce | d2 de d2 | ed eg ag | Te3 d c2 |
cB cd ed | cd cB AG | E>D CE GE | D4 :|
|: DC |\
A,2 A,2 DE | GF GA G2 | GE DC EG | A2 Ac A2 |
cB cd ed | cA cd ef | ag ed ce | d2 de d2 |
cB AG E>D | C2 CD C2 | AG ED EG | A2 Ac A2 |
c2 GE C2 | d2 cB AG | E>D CE GE | D4 :|
